!!!SOCIAL_FUNCTION:	deer dance songs
!!!PDT:	1932
!!!OTL: No_91_The_Bush_is_Singing.krn
!!!REG: Southwest
!!!LANG: Non-Tone
!!!LING_GROUP: Yuman-Cochimi
**kern
*staff1
=1-
*clefF4
*k[f#c#g#d#]
*M2/4
4r
8r
8G#\
=2
8G#\L
16G#\L
16G#\JJ
8G#\L
16G#\L
16G#\JJ
=3
16G#\LL
16F#\J
[8G#\J
8G#\]
16r
16G#\
=4
8.B\L
16B\Jk
16G#\LL
16F#\J
8F#\J
=5
16G#\LL
16G#\
16G#\
16G#\JJ
12G#\L
12F#\
12F#\J
=6||
*M3/4
16F#\LL
16E\
16E\
16E\JJ
4E\
8r
16r
16G#\
=7||
*M2/4
8G#\L
16B\L
16B\JJ
8G#\L
16F#\L
16F#\JJ
=8
16F#\LL
16E\J
[8E\J
8E\]
16r
16F#\
=9
16.G#\LL
32F#\K
16E\
16E\JJ
16F#\LL
16E\
16E\
16E\JJ
=10
16E\LL
16E\
16E\
16E\JJ
16E\LL
16E\
16E\
16E\JJ
=11
4E\
4r
==
*-
